hornpipes/bobbycaseys.htmlhornpipes/bobbycaseys.htmlhornpipes/bobbycaseys.htmlhornpipes/bobbycaseys.htmlhornpipes/bobbycaseys.htmlhornpipes/bobbycaseys.htmlhornpipes/bobbycaseys.htmlhornpipes/bobbycaseys.htmlhornpipes/bobbycaseys.htmlKaren Tweed
hornpipes/bobbycaseys.htmlFrom <I>Across the Waters</I>
hornpipes/bobbycaseys.htmlhornpipes/bobbycaseys.html<PRE>T:Waking Up in Wonderful Wark
T:Waking Up in Wonderful Wark
M:6/8
L:1/8
C:Karen Tweed
R:jig
D:Across the Waters
Z:Devin McCabe
K:D
|:~A,3 A,B,D|F2A FED|D/2E/2Dd BAF|ABd f2e|
!edB ~d3|BAF AB/2c/2d|edB BAF|AFE E3:||
!:" Optional 8va"~A,3 E2F|GFE FDB,|~A,3 EDC|DB,E DB,E|
!~A,3 E2F|GFE FDB,|~D3 DB,E|1~A,3 A,EC:|2~A,3 A,3||

%  ABC2Win Version 2.1 9/23/2000
hornpipes/bobbycaseys.htmlhornpipes/bobbycaseys.htmlhornpipes/bobbycaseys.htmlhornpipes/bobbycaseys.htmlhornpipes/bobbycaseys.htmlhornpipes/bobbycaseys.htmlhornpipes/bobbycaseys.html